Newaita-dark/actions/22/fill-color.svg

<svg height="22" viewBox="0 0 22 22" width="22" xmlns="http://www.w3.org/2000/svg"><path d="m7.585938 16.851562c0 1.832032 1.472656 3.308594 3.304687 3.308594s3.304687-1.476562 3.304687-3.308594c0-2.480468-1.652343-4.132812-3.304687-6.613281-1.652344 2.480469-3.304687 4.132813-3.304687 6.613281zm0 0" fill="#ff7043"/><path d="m2.625 8.585938c0 .878906.347656 1.71875.964844 2.339843.621094.621094 1.464844.96875 2.34375.964844.875.003906 1.71875-.34375 2.339844-.964844.617187-.621093.964843-1.460937.964843-2.339843 0-2.480469-1.652343-4.132813-3.308593-6.613282-1.648438 2.480469-3.304688 4.132813-3.304688 6.613282zm0 0" fill="#7e57c2"/><path d="m12.542969 8.585938c0 1.832031 1.476562 3.304687 3.308593 3.304687 1.832032 0 3.308594-1.472656 3.308594-3.304687 0-2.480469-1.65625-4.132813-3.308594-6.613282-1.65625 2.480469-3.308593 4.132813-3.308593 6.613282zm0 0" fill="#42a5f5"/></svg>

<?xml version="1.0" encoding="UTF-8"?>
<svg xmlns="http://www.w3.org/2000/svg" xmlns:xlink="http://www.w3.org/1999/xlink" width="22px" height="22px" viewBox="0 0 22 22" version="1.1">
<g id="surface1">
<path style=" stroke:none;fill-rule:nonzero;fill:rgb(100%,43.921569%,26.274511%);fill-opacity:1;" d="M 7.585938 16.851562 C 7.585938 18.683594 9.058594 20.160156 10.890625 20.160156 C 12.722656 20.160156 14.195312 18.683594 14.195312 16.851562 C 14.195312 14.371094 12.542969 12.71875 10.890625 10.238281 C 9.238281 12.71875 7.585938 14.371094 7.585938 16.851562 Z M 7.585938 16.851562 "/>
<path style=" stroke:none;fill-rule:nonzero;fill:rgb(49.411765%,34.117648%,76.078433%);fill-opacity:1;" d="M 2.625 8.585938 C 2.625 9.464844 2.972656 10.304688 3.589844 10.925781 C 4.210938 11.546875 5.054688 11.894531 5.933594 11.890625 C 6.808594 11.894531 7.652344 11.546875 8.273438 10.925781 C 8.890625 10.304688 9.238281 9.464844 9.238281 8.585938 C 9.238281 6.105469 7.585938 4.453125 5.929688 1.972656 C 4.28125 4.453125 2.625 6.105469 2.625 8.585938 Z M 2.625 8.585938 "/>
<path style=" stroke:none;fill-rule:nonzero;fill:rgb(25.882354%,64.705884%,96.078432%);fill-opacity:1;" d="M 12.542969 8.585938 C 12.542969 10.417969 14.019531 11.890625 15.851562 11.890625 C 17.683594 11.890625 19.160156 10.417969 19.160156 8.585938 C 19.160156 6.105469 17.503906 4.453125 15.851562 1.972656 C 14.195312 4.453125 12.542969 6.105469 12.542969 8.585938 Z M 12.542969 8.585938 "/>
</g>
</svg>
